X:1
T:Title
%%score ( 1 2 ) { 3 | 4 }
L:1/8
Q:1/4=100
M:6/8
K:F
V:1 treble nm="Grand Piano, Soprano"
V:2 treble 
V:3 treble nm="Choir Pad, Waiting for You and Me"
V:4 bass 
V:1
 F [FA]2 [FA]F[FA] | [Fd] [Fc]2- [Fc] [FA]2 | [FA] [EG]2 [EG] [EG]2 | [Ec] [FA]2- [FA]2- [FA]/ z/ | %4
w: By~William~James~Kirkpatrick,~1886 * * * *||||
 F [FA]2 [FA][CF][FA] | [Fd] [Fc]2- [Fc] [FA]2 | [FA] [EG]2 [EG] [FA]2 | %7
w: |||
 [FG] [EG]2- [EG]2- [EG]/ z/ | [EG] [EB]2 [EB] [EG]2 | [EG] [Fd]2- [Fd] [Fc]2 | %10
w: |||
 [Fc] [EB]2 [EB] [EG]2 | [Ec] [FA]2- [FA]2- [FA]/ z/ | [CG][CF][FA] [Fc] [Af]2 | [Fc] e2 d [FB]2 | %14
w: ||||
 [DG][CF][FA] [Fd] [Ec]2 | [CE] [CF]2- [CF]2- [CF]/ z/ | z [Fc]2- [Fc] [FA]2- | %17
w: |||
 [FA] [Fd]2- [Fd] [Fc]2- | [Fc][EB][EB] [EB] [EG]2 | [Ec] [FA]2- [FA]2- [FA]/ z/ | %20
w: |||
 [CG][CF][FA] [Fc] [Af]2 | [Fc] e2 d [FB]2 | [DG][CF][FA] [Fd] [Ec]2 | [CE] [CF]2- [CF]3- | %24
w: ||||
 [CF]3 z3 |] %25
w: |
V:2
 z3 z C2 | x6 | x6 | x6 | x6 | x6 | x6 | x6 | x6 | x6 | x6 | x6 | x6 | z F2- F/ z/ z z | x6 | x6 | %16
 x6 | x6 | x6 | x6 | x6 | z F2- F/ z/ z z | x6 | x6 | x6 |] %25
V:3
 A, C2 CA,C | B, A,2- A, C2 | C[K:treble] C2 C C2 | C C2- C2- C/ z/ | A, C2 C[K:bass]A,C | %5
 B, A,2- A,[K:treble] C2 | C C2 C =B,2 | =B, C2- C2- C/ z/ | C[K:bass] G,2 G, C2 | C B,2- B, A,2 | %10
 A, G,2 G,[K:treble] C2 | C C2- C2- C/ z/ | B, A,2 A, C2 | A, B,2- B, D2 | B, A,2 A, G,2 | %15
 B, A,2- A,2- A,/ z/ | z A,A, A, C2- | CB,B, B, A,2- | A,[K:treble]CC C C2 | C C2- C2- C/ z/ | %20
 B, A,2 A, C2 | A, B,2- B, D2 | B, A,2 A, G,2 | B, A,2- A,3- | A,2 z z3 |] %25
V:4
 F, F,2 F, F,2 | F, F,2- F, F,2 | F, C,2 C, C,2 | C, F,2- F,2- F,/ z/ | F, F,2 F, F,2 | %5
 F, F,2- F, F,2 | F, G,2 G, G,2 | G, C,2- C,2- C,/ z/ | C, C,2 C, C,2 | C, F,2- F, F,2 | %10
 F, C,2 C, C,2 | C, F,2- F,2- F,/ z/ | F, F,2 F, F,2 | F, B,,2- B,, B,,2 | B,, C,2 C, C,2 | %15
 C, F,2- F,2- F,/ z/ | z F,F, F, F,2- | F,F,F, F, F,2- | F,G,G, G, C,2 | C, F,2- F,2- F,/ z/ | %20
 F, F,2 F, F,2 | F, B,,2- B,, B,,2 | B,, C,2 C, C,2 | C, [F,,F,]2- [F,,F,]3- | [F,,F,]2 z z3 |] %25

